_includes/icons/ios-online-support.svg

<svg fill="#666" height="50" viewBox="0 0 50 50" width="50" xmlns="http://www.w3.org/2000/svg"><path d="m26 2c-12.699219 0-17.601562 8.199219-18 16v6.6875c-.699219.800781-1 1.824219-1 3.125 0 2.300781 1.488281 4.1875 3.6875 4.6875 2.601563 6.800781 6.914063 15.5 14.3125 15.5 4 0 7.101563-2.601562 9.5-6h-2.59375c-2.199219 2.699219-4.5 4-7 4-4.800781 0-8.917969-4.8125-12.71875-14.8125l-.1875-.59375-.59375-.09375c-1.300781 0-2.40625-1.1875-2.40625-2.6875 0-.585937.109375-1.078125.28125-1.46875l3.28125 1.5625c.3125.152344.679688.132813.972656-.054687.289063-.183594.46875-.503907.464844-.851563v-7.15625c.691406-.046875 2.511719-.117187 5.53125-.84375 3.175781-.761719 6.839844-2.125 9.375-4.5625 2.683594 3.535156 6.152344 4.90625 7.09375 5.21875v7.34375c-.003906.347656.175781.667969.464844.851563.292969.1875.660156.207031.972656.054687l1.5625-.78125v3.3125c-.160156.035156-.332031.0625-.5.0625l-.59375.09375-.21875.59375c-1 2.601563-2 4.820313-3 6.71875 1.199219-.199219 2.324219-.695312 3.125-1.59375.601563-1.300781 1.09375-2.613281 1.59375-3.8125.199219-.050781.394531-.132812.59375-.21875v.71875c0 3.371094-2.628906 6-6 6h-4.1875c-.417969-1.15625-1.519531-2-2.8125-2h-2c-1.644531 0-3 1.355469-3 3s1.355469 3 3 3h2c1.292969 0 2.394531-.84375 2.8125-2h4.1875c4.429688 0 8-3.570312 8-8v-1c1.644531 0 3-1.355469 3-3v-4c0-1.644531-1.355469-3-3-3v-4c-.398437-8.800781-5.292969-13.800781-13.59375-14l-2-2zm-.40625 2 2 2h.40625c10 0 11.800781 7.5 12 12v4c-.03125 0-.0625 0-.09375 0-.515625.046875-.910156.480469-.90625 1v1.875l-1 .5v-6.375c.003906-.449219-.289062-.84375-.71875-.96875 0 0-4.984375-1.566406-7.4375-5.5625-.199219-.320312-.5625-.5-.9375-.46875-.269531.027344-.519531.160156-.6875.375-1.992187 2.390625-5.785156 3.886719-9.125 4.6875s-6.15625.9375-6.15625.9375c-.527344.03125-.9375.472656-.9375 1v6.40625l-2.09375-1v-6.40625c.601563-10.101562 8.386719-13.898437 15.6875-14zm15.40625 20h1c.554688 0 1 .445313 1 1v4c0 .554688-.445312 1-1 1h-.8125c-.0625-.015625-.125-.027344-.1875-.03125v-4.34375c.015625-.105469.015625-.207031 0-.3125zm-16 15h2c.554688 0 1 .445313 1 1 0 .554688-.445312 1-1 1h-2c-.554687 0-1-.445312-1-1 0-.554687.445313-1 1-1z"/></svg>

<svg xmlns="http://www.w3.org/2000/svg" viewBox="0 0 50 50" width="50" height="50" fill="#666"><path d="M 26 2 C 13.300781 2 8.398438 10.199219 8 18 L 8 24.6875 C 7.300781 25.488281 7 26.511719 7 27.8125 C 7 30.113281 8.488281 32 10.6875 32.5 C 13.289063 39.300781 17.601563 48 25 48 C 29 48 32.101563 45.398438 34.5 42 L 31.90625 42 C 29.707031 44.699219 27.40625 46 24.90625 46 C 20.105469 46 15.988281 41.1875 12.1875 31.1875 L 12 30.59375 L 11.40625 30.5 C 10.105469 30.5 9 29.3125 9 27.8125 C 9 27.226563 9.109375 26.734375 9.28125 26.34375 L 12.5625 27.90625 C 12.875 28.058594 13.242188 28.039063 13.535156 27.851563 C 13.824219 27.667969 14.003906 27.347656 14 27 L 14 19.84375 C 14.691406 19.796875 16.511719 19.726563 19.53125 19 C 22.707031 18.238281 26.371094 16.875 28.90625 14.4375 C 31.589844 17.972656 35.058594 19.34375 36 19.65625 L 36 27 C 35.996094 27.347656 36.175781 27.667969 36.464844 27.851563 C 36.757813 28.039063 37.125 28.058594 37.4375 27.90625 L 39 27.125 L 39 30.4375 C 38.839844 30.472656 38.667969 30.5 38.5 30.5 L 37.90625 30.59375 L 37.6875 31.1875 C 36.6875 33.789063 35.6875 36.007813 34.6875 37.90625 C 35.886719 37.707031 37.011719 37.210938 37.8125 36.3125 C 38.414063 35.011719 38.90625 33.699219 39.40625 32.5 C 39.605469 32.449219 39.800781 32.367188 40 32.28125 L 40 33 C 40 36.371094 37.371094 39 34 39 L 29.8125 39 C 29.394531 37.84375 28.292969 37 27 37 L 25 37 C 23.355469 37 22 38.355469 22 40 C 22 41.644531 23.355469 43 25 43 L 27 43 C 28.292969 43 29.394531 42.15625 29.8125 41 L 34 41 C 38.429688 41 42 37.429688 42 33 L 42 32 C 43.644531 32 45 30.644531 45 29 L 45 25 C 45 23.355469 43.644531 22 42 22 L 42 18 C 41.601563 9.199219 36.707031 4.199219 28.40625 4 L 26.40625 2 Z M 25.59375 4 L 27.59375 6 L 28 6 C 38 6 39.800781 13.5 40 18 L 40 22 C 39.96875 22 39.9375 22 39.90625 22 C 39.390625 22.046875 38.996094 22.480469 39 23 L 39 24.875 L 38 25.375 L 38 19 C 38.003906 18.550781 37.710938 18.15625 37.28125 18.03125 C 37.28125 18.03125 32.296875 16.464844 29.84375 12.46875 C 29.644531 12.148438 29.28125 11.96875 28.90625 12 C 28.636719 12.027344 28.386719 12.160156 28.21875 12.375 C 26.226563 14.765625 22.433594 16.261719 19.09375 17.0625 C 15.753906 17.863281 12.9375 18 12.9375 18 C 12.410156 18.03125 12 18.472656 12 19 L 12 25.40625 L 9.90625 24.40625 L 9.90625 18 C 10.507813 7.898438 18.292969 4.101563 25.59375 4 Z M 41 24 L 42 24 C 42.554688 24 43 24.445313 43 25 L 43 29 C 43 29.554688 42.554688 30 42 30 L 41.1875 30 C 41.125 29.984375 41.0625 29.972656 41 29.96875 L 41 25.625 C 41.015625 25.519531 41.015625 25.417969 41 25.3125 Z M 25 39 L 27 39 C 27.554688 39 28 39.445313 28 40 C 28 40.554688 27.554688 41 27 41 L 25 41 C 24.445313 41 24 40.554688 24 40 C 24 39.445313 24.445313 39 25 39 Z"/></svg>
